X:1
T:Title
%%score { 1 | 2 }
L:1/8
M:4/2
K:G
V:1 treble nm="Grand Piano"
V:2 treble 
V:1
 z8 z4 B4 | B6 G2 A2 B2 c3 B | [FA]12 [FA]4 | [FA]6 [DF]2 [DG]2 [FA]2 [FB]3 [FA] |[M:6/4] G12 | %5
[M:2/4] B4 |[M:8/4] B6 G2 A2 [GB]2 [Gc]3 [Gd] | [Ge]12 [DFA]4 | [DGd]6 [B,G]2 [DFB]4 [CDA]4 | %9
[M:6/4] [B,DG]12 |] %10
V:2
 z8 z4 [G,DG]4 | [G,DG]6 [G,B,]2 [G,CG]2 [G,DG]2 [G,EG]3 [G,DG] | [D,D]12 [D,C]4 | %3
 [D,C]6 [D,A,]2 [D,B,]2 [D,C]2 [D,D]3 [D,C] |[M:6/4] [G,B,]12 |[M:2/4][K:treble] [G,DG]4 | %6
[M:8/4] [G,DG]6 [G,B,]2 [G,CG]2[K:bass] [=F,D]2 [E,C]3 [D,B,] | [C,C]12 C,4 | B,,6 E,2 D,4 D,4 | %9
[M:6/4] G,12 |] %10

